Numix-uTouch/48x48/apps/polari.svg

<?xml version="1.0" encoding="UTF-8" standalone="no"?>
<svg
   xmlns:dc="http://purl.org/dc/elements/1.1/"
   xmlns:cc="http://creativecommons.org/ns#"
   xmlns:rdf="http://www.w3.org/1999/02/22-rdf-syntax-ns#"
   xmlns:svg="http://www.w3.org/2000/svg"
   xmlns="http://www.w3.org/2000/svg"
   xmlns:xlink="http://www.w3.org/1999/xlink"
   xmlns:sodipodi="http://sodipodi.sourceforge.net/DTD/sodipodi-0.dtd"
   xmlns:inkscape="http://www.inkscape.org/namespaces/inkscape"
   width="48"
   height="48"
   id="svg2"
   version="1.1"
   inkscape:version="0.48.4 r9939"
   sodipodi:docname="polari.svg">
  <metadata
     id="metadata42">
    <rdf:RDF>
      <cc:Work
         rdf:about="">
        <dc:format>image/svg+xml</dc:format>
        <dc:type
           rdf:resource="http://purl.org/dc/dcmitype/StillImage" />
      </cc:Work>
    </rdf:RDF>
  </metadata>
  <sodipodi:namedview
     pagecolor="#ffffff"
     bordercolor="#666666"
     borderopacity="1"
     objecttolerance="10"
     gridtolerance="10"
     guidetolerance="10"
     inkscape:pageopacity="0"
     inkscape:pageshadow="2"
     inkscape:window-width="672"
     inkscape:window-height="480"
     id="namedview40"
     showgrid="false"
     inkscape:zoom="4.9166667"
     inkscape:cx="33.355932"
     inkscape:cy="28.474576"
     inkscape:window-x="0"
     inkscape:window-y="0"
     inkscape:window-maximized="0"
     inkscape:current-layer="svg2" />
  <defs
     id="defs4">
    <linearGradient
       xlink:href="#1"
       id="0"
       y1="1050.36"
       x2="0"
       y2="1006.36"
       gradientUnits="userSpaceOnUse" />
    <linearGradient
       id="1">
      <stop
         stop-color="#96d4c4"
         id="stop8" />
      <stop
         offset="1"
         stop-color="#dbf3ed"
         id="stop10" />
    </linearGradient>
    <linearGradient
       gradientTransform="matrix(3.543307,0,0,3.543307,7.8740741e-4,1004.3638)"
       xlink:href="#3"
       id="2"
       y1="3.387"
       y2="10.16"
       x2="0"
       gradientUnits="userSpaceOnUse" />
    <linearGradient
       id="3">
      <stop
         stop-color="#e4f1cb"
         id="stop14" />
      <stop
         offset="1"
         stop-color="#e9f4d6"
         id="stop16" />
    </linearGradient>
    <radialGradient
       cx="148.004"
       cy="160"
       gradientTransform="matrix(0.1831,0,0,0.1831,-3.10029,-5.29688)"
       id="radial0"
       r="128"
       gradientUnits="userSpaceOnUse">
      <stop
         offset="0"
         style="stop-color:#df9fb4"
         id="stop7" />
      <stop
         offset="1"
         style="stop-color:#623443"
         id="stop9" />
    </radialGradient>
    <radialGradient
       r="128"
       cy="160"
       cx="148.004"
       gradientTransform="matrix(0.1831,0,0,0.1831,-3.10079,-5.29638)"
       gradientUnits="userSpaceOnUse"
       id="radialGradient3023"
       xlink:href="#radial0"
       inkscape:collect="always" />
    <linearGradient
       inkscape:collect="always"
       xlink:href="#1"
       id="linearGradient3040"
       gradientUnits="userSpaceOnUse"
       y1="1050.36"
       x2="0"
       y2="1006.36" />
    <linearGradient
       inkscape:collect="always"
       xlink:href="#3"
       id="linearGradient3042"
       gradientUnits="userSpaceOnUse"
       gradientTransform="matrix(3.543307,0,0,3.543307,7.8740741e-4,1004.3638)"
       y1="3.387"
       x2="0"
       y2="10.16" />
    <linearGradient
       inkscape:collect="always"
       xlink:href="#3"
       id="linearGradient3046"
       gradientUnits="userSpaceOnUse"
       gradientTransform="matrix(3.543307,0,0,3.543307,7.8740741e-4,0.0016)"
       y1="3.387"
       x2="0"
       y2="10.16" />
    <linearGradient
       inkscape:collect="always"
       xlink:href="#1"
       id="linearGradient3049"
       gradientUnits="userSpaceOnUse"
       y1="1050.36"
       x2="0"
       y2="1006.36"
       gradientTransform="translate(0,-1004.3622)" />
  </defs>
  <path
     inkscape:connector-curvature="0"
     style="fill:url(#radialGradient3023)"
     d="m 47.436999,11.547375 0,24.90625 c 0,10.25 0,10.984375 -10.984375,10.984375 l -24.902343,0 C 0.562,47.438 0.562,46.703625 0.562,36.453625 l 0,-24.90625 c 0,-10.25 0,-10.984375 10.988281,-10.984375 l 24.902343,0 c 10.984375,0 10.984375,0.734375 10.984375,10.984375 z"
     id="path11" />
  <path
     id="path15"
     d="m 38.265125,47.438 c 2.542969,-0.01172 4.378906,-0.08203 5.710937,-0.441406 l -4.230468,-7.25 -4.484375,7.691406 1.191406,0 c 0.640625,0 1.242187,0 1.8125,0 z m 1.480469,-7.691406 -5.125,-8.789063 -5.128906,8.789063 z m 0,0 7.652344,0 c 0.03125,-0.972656 0.03906,-2.0625 0.03906,-3.296875 l 0,-1.097657 -2.5625,-4.394531 z m 5.128906,-8.789063 -5.128906,-8.789062 -5.125,8.789062 z m 0,0 2.5625,0 0,-4.394531 z m -10.253906,0 -5.128906,-8.789062 -5.125,8.789062 z m -10.253906,0 -5.128907,8.789063 10.253907,0 z m 0,0 -5.128907,-8.789062 -5.125,8.789062 z m -10.253907,0 -5.128906,8.789063 10.253906,0 z m 0,0 -5.128906,-8.789062 -5.125,8.789062 z m -10.253906,0 L 0.562,36.605969 c 0,1.167969 0.011719,2.210937 0.039062,3.140625 l 8.382813,0 z m 0,0 -3.296875,-5.648437 0,5.648437 z m 5.125,8.789063 -4.3125,7.394531 C 6.269031,47.434094 8.479969,47.438 11.550281,47.438 l 1.921875,0 z m 0,-17.578125 -5.125,-8.789063 -3.296875,5.648438 0,3.140625 z m 0,0 10.253906,0 -5.125,-8.789063 z m 5.128906,-8.789063 -5.128906,-8.789062 -5.125,8.789062 z m 0,0 10.253907,0 -5.128907,-8.789062 z m 5.125,-8.789062 -2.351562,-4.027344 -5.339844,0 c -0.07422,0 -0.136719,0 -0.210937,0 L 8.983875,4.590344 z m 0,0 10.253907,0 -2.351563,-4.027344 -5.550781,0 z m 10.253907,0 10.253906,0 L 37.394031,0.563 c -0.3125,0 -0.609375,0 -0.945312,0 l -4.605469,0 z m 0,0 -5.125,8.789062 10.253906,0 z m 5.128906,8.789062 10.253906,0 -5.128906,-8.789062 z m 0,0 -5.128906,8.789063 10.253906,0 z m 5.125,8.789063 7.691406,0 0,-4.394531 -2.5625,-4.394532 z m 5.128906,-8.789063 2.5625,0 0,-1.832031 c 0,-0.914063 -0.0078,-1.75 -0.02344,-2.523437 z m -15.382812,8.789063 -5.125,-8.789063 -5.128907,8.789063 z m 10.253906,-17.578125 7.308594,0 C 46.4995,1.832531 45.167469,0.961438 42.022938,0.688 z m -30.761719,0 L 6.679188,0.637219 C 3.019031,0.84425 1.538562,1.633312 0.944812,4.590344 z m -5.125,8.789062 L 0.620594,7.824719 C 0.577625,8.898938 0.562,10.133312 0.562,11.547375 l 0,1.832031 z m 15.378906,26.367188 -4.484375,7.691406 8.972656,0 z m 10.253907,0 -4.484376,7.691406 8.972657,0 z M 2.59325,46.367688 0.991688,43.621594 C 1.284656,44.938 1.776844,45.801281 2.59325,46.367688 z"
     style="fill:#ffffff;fill-opacity:0.05100002"
     inkscape:connector-curvature="0" />
  <path
     style="fill:#f9f9f9;fill-opacity:1"
     d="M 24 12 C 17.372566 12 12 17.19505 12 23.59375 C 12 27.45195 13.964975 30.8317 16.96875 32.9375 C 16.858862 33.3809 16.719972 33.85825 16.5 34.34375 C 15.750014 35.99905 15 36 15 36 C 15 36 17.249992 36.0149 18.75 35.1875 C 19.066896 35.0131 19.343832 34.7168 19.59375 34.375 C 20.960036 34.8971 22.441349 35.1875 24 35.1875 C 30.627417 35.1875 36 29.99265 36 23.59375 C 36 17.19495 30.627416 12 24 12 z M 22.5625 17 L 23.9375 17 L 23.15625 20.96875 L 26.03125 20.96875 L 26.84375 17 L 28.1875 17 L 27.40625 20.96875 L 29 20.96875 L 29 22.34375 L 27.125 22.34375 L 26.46875 25.6875 L 29 25.6875 L 29 27.0625 L 26.1875 27.0625 L 25.375 31 L 24 31 L 24.8125 27.0625 L 21.90625 27.0625 L 21.125 31 L 19.75 31 L 20.5625 27.0625 L 19 27.0625 L 19 25.6875 L 20.8125 25.6875 L 21.5 22.34375 L 19 22.34375 L 19 20.96875 L 21.78125 20.96875 L 22.5625 17 z M 22.875 22.34375 L 22.1875 25.6875 L 25.0625 25.6875 L 25.75 22.34375 L 22.875 22.34375 z "
     id="path36" />
</svg>

<svg xmlns="http://www.w3.org/2000/svg" viewBox="0 0 48 48"><defs><radialGradient id="0" cx="24" cy="24" r="23.437" gradientUnits="userSpaceOnUse"><stop stop-color="#abddd0"/><stop offset="1" stop-color="#8bbdb0"/></radialGradient></defs><path d="m 47.44 11.547 l 0 24.906 c 0 10.25 0 10.984 -10.984 10.984 l -24.902 0 c -10.988 0 -10.988 -0.734 -10.988 -10.984 l 0 -24.906 c 0 -10.25 0 -10.984 10.988 -10.984 l 24.902 0 c 10.984 0 10.984 0.734 10.984 10.984" fill="url(#0)"/><path d="m 24 12 c -6.629 0 -12 5.195 -12 11.594 c 0 3.859 1.969 7.238 4.969 9.344 c -0.109 0.441 -0.246 0.922 -0.469 1.406 c -0.75 1.656 -1.5 1.656 -1.5 1.656 c 0 0 2.254 0.016 3.75 -0.813 c 0.316 -0.176 0.598 -0.473 0.844 -0.813 c 1.367 0.52 2.848 0.813 4.406 0.813 c 6.625 0 12 -5.195 12 -11.594 c 0 -6.402 -5.371 -11.594 -12 -11.594 m -1.438 5 l 1.375 0 l -0.781 3.969 l 2.875 0 l 0.813 -3.969 l 1.344 0 l -0.781 3.969 l 1.594 0 l 0 1.375 l -1.875 0 l -0.656 3.344 l 2.531 0 l 0 1.375 l -2.813 0 l -0.813 3.938 l -1.375 0 l 0.813 -3.938 l -2.906 0 l -0.781 3.938 l -1.375 0 l 0.813 -3.938 l -1.563 0 l 0 -1.375 l 1.813 0 l 0.688 -3.344 l -2.5 0 l 0 -1.375 l 2.781 0 m 1.094 1.375 l -0.688 3.375 l 2.875 0 l 0.688 -3.375 m -2.875 0" fill="#fff"/><path d="m 38.27 47.44 c 2.543 -0.012 4.379 -0.082 5.711 -0.441 l -4.23 -7.25 -4.484 7.691 1.191 0 c 0.641 0 1.242 0 1.813 0 z m 1.48 -7.691 -5.125 -8.789 -5.129 8.789 z m 0 0 7.652 0 c 0.031 -0.973 0.039 -2.063 0.039 -3.297 l 0 -1.098 -2.563 -4.395 z m 5.129 -8.789 -5.129 -8.789 -5.125 8.789 z m 0 0 2.563 0 0 -4.395 z m -10.254 0 -5.129 -8.789 -5.125 8.789 z m -10.254 0 -5.129 8.789 10.254 0 z m 0 0 -5.129 -8.789 -5.125 8.789 z m -10.254 0 -5.129 8.789 10.254 0 z m 0 0 -5.129 -8.789 -5.125 8.789 z m -10.254 0 -3.297 5.648 c 0 1.168 0.012 2.211 0.039 3.141 l 8.383 0 z m 0 0 -3.297 -5.648 0 5.648 z m 5.125 8.789 -4.313 7.395 c 1.598 0.293 3.809 0.297 6.879 0.297 l 1.922 0 z m 0 -17.578 -5.125 -8.789 -3.297 5.648 0 3.141 z m 0 0 10.254 0 -5.125 -8.789 z m 5.129 -8.789 -5.129 -8.789 -5.125 8.789 z m 0 0 10.254 0 -5.129 -8.789 z m 5.125 -8.789 -2.352 -4.03 -5.336 0 c -0.078 0 -0.141 0 -0.215 0 l -2.352 4.03 z m 0 0 10.254 0 -2.352 -4.03 -5.551 0 z m 10.254 0 10.254 0 l -2.352 -4.03 c -0.313 0 -0.609 0 -0.941 0 l -4.609 0 z m 0 0 -5.125 8.789 10.254 0 z m 5.129 8.789 10.254 0 -5.129 -8.789 z m 0 0 -5.129 8.789 10.254 0 z m 5.125 8.789 7.691 0 0 -4.395 -2.563 -4.395 z m 5.129 -8.789 2.563 0 0 -1.832 c 0 -0.914 -0.008 -1.75 -0.023 -2.523 z m -15.383 8.789 -5.125 -8.789 -5.129 8.789 z m 10.254 -17.578 7.309 0 c -0.555 -2.758 -1.887 -3.629 -5.03 -3.902 z m -30.762 0 l -2.305 -3.953 c -3.66 0.207 -5.141 0.996 -5.734 3.953 z m -5.125 8.789 l -3.238 -5.555 c -0.043 1.074 -0.059 2.309 -0.059 3.723 l 0 1.832 z m 15.379 26.367 -4.484 7.691 8.973 0 z m 10.254 0 -4.484 7.691 8.973 0 z m -26.898 6.621 -1.602 -2.746 c 0.293 1.316 0.785 2.18 1.602 2.746 z" fill="#fff" fill-opacity="0.115"/></svg>
